public/img/hero/closelanglisticon.svg

<svg width="8" height="5" viewBox="0 0 8 5" fill="none" xmlns="http://www.w3.org/2000/svg">
<path d="M8 0.665341C8 0.601202 7.96793 0.529056 7.91985 0.48097L7.51903 0.0801561C7.47095 0.03207 7.3988 0 7.3347 0C7.27056 0 7.19841 0.03207 7.15032 0.0801561L3.99998 3.23046L0.849678 0.0801561C0.801591 0.03207 0.729444 0 0.665305 0C0.593158 0 0.529055 0.03207 0.480933 0.0801561L0.0801555 0.48097C0.0320334 0.529056 0 0.601202 0 0.665341C0 0.729444 0.0320334 0.801591 0.0801555 0.849678L3.81565 4.58517C3.86373 4.63329 3.93588 4.66532 3.99998 4.66532C4.06412 4.66532 4.13627 4.63329 4.18435 4.58517L7.91985 0.849678C7.96793 0.801591 8 0.729444 8 0.665341Z" fill="#ffffff"/>
</svg>

<svg width="8" height="5" viewBox="0 0 8 5" fill="none" xmlns="http://www.w3.org/2000/svg"><path d="M8 .665a.276.276 0 00-.08-.184l-.401-.4A.276.276 0 007.335 0a.276.276 0 00-.185.08L4 3.23.85.08A.276.276 0 00.665 0a.261.261 0 00-.184.08l-.4.401A.276.276 0 000 .665C0 .73.032.802.08.85l3.736 3.735c.048.048.12.08.184.08a.276.276 0 00.184-.08L7.92.85A.276.276 0 008 .665z" fill="#fff"/></svg>
